X: 632
T: Zhaoxian nangou
L: 1/8
M: 2/4
K: A
e f/ e/ c e [I:setbarnb 1]| 
eB3 | 
a f/ e/ d e | 
A E E F/ E/ | 
A> A A B | 
eB2A | 
B A E D | 
B,4 |]

@@@ Tune index: 9506
